_includes/svg/phone.svg

<svg width="111px" height="100px" viewBox="0 0 111 100" version="1.1" xmlns="http://www.w3.org/2000/svg" xmlns:xlink="http://www.w3.org/1999/xlink">
    <!-- Generator: Sketch 43.2 (39069) - http://www.bohemiancoding.com/sketch -->
    <title>021-urgency</title>
    <defs></defs>
    <g id="Page-1" stroke="none" stroke-width="1" fill="none" fill-rule="evenodd">
        <g id="CTreposition" transform="translate(-1200.000000, -1404.000000)" fill-rule="nonzero">
            <g id="021-urgency" transform="translate(1200.000000, 1404.000000)">
                <path d="M107.538407,47.0224824 C105.739813,31.7793911 91.9255269,20.882904 76.6824356,22.6814988 C61.4393443,24.4800937 50.5428571,38.2967213 52.341452,53.5374707 C52.7637002,57.112178 53.8676815,60.4346604 55.4740047,63.4248244 L49.9608899,77.4437939 L74.1594848,77.4437939 C77.0571429,78.0608899 80.0948478,78.2456674 83.2,77.8784543 C98.4405152,76.0798595 109.337002,62.2655738 107.538407,47.0224824 Z" id="Shape" fill="#13BA8E"></path>
                <path d="M80.0100703,80.5639344 C77.9765808,80.5639344 75.9306792,80.3566745 73.8997658,79.9419204 L49.9608899,79.9419204 C49.1339578,79.9419204 48.359719,79.5323185 47.8974239,78.8503513 C47.4302108,78.1683841 47.3327869,77.2990632 47.6377049,76.5297424 L52.7386417,63.5622951 C51.2297424,60.4796253 50.2629977,57.212178 49.863466,53.8323185 C48.9142857,45.7985948 51.152459,37.8747073 56.1611241,31.5222482 C61.1721311,25.1721311 68.3566745,21.1503513 76.39274,20.201171 C84.4238876,19.2543326 92.3477752,21.4901639 98.7028103,26.501171 C105.055269,31.512178 109.072131,38.6967213 110.021546,46.730445 C110.97096,54.7641686 108.732553,62.6880562 103.723888,69.0405152 C98.7128806,75.3906323 91.5283372,79.4124122 83.4922717,80.3615925 C82.3355972,80.4964871 81.1740047,80.5639344 80.0100703,80.5639344 Z M53.628103,74.9456674 L74.1594848,74.9456674 C74.3344262,74.9456674 74.5091335,74.9632319 74.6791569,75.0007026 C77.4269321,75.5852459 80.1948478,75.7175644 82.9051522,75.3978923 C89.6173302,74.606089 95.6152225,71.2487119 99.7995316,65.9451991 C103.983841,60.6393443 105.852225,54.0245902 105.057845,47.3147541 L105.057845,47.3147541 C104.268384,40.604918 100.911007,34.60726 95.6051522,30.4229508 C90.3018735,26.2386417 83.6793911,24.3725995 76.9772834,25.1620609 C70.2651054,25.9538642 64.2672131,29.3112412 60.082904,34.6147541 C55.8985948,39.9206089 54.0302108,46.535363 54.8245902,53.2451991 C55.1943794,56.3852459 56.15363,59.4103044 57.6772834,62.2407494 C58.0245902,62.887822 58.069555,63.6545667 57.8021077,64.3391101 L53.628103,74.9456674 Z" id="Shape" fill="#000000"></path>
                <path d="M91.0564403,44.7217799 L85.4983607,44.7217799 L85.4983607,39.1637002 C85.4983607,36.0936768 83.0103044,33.6056206 79.940281,33.6056206 L79.940281,33.6056206 C76.8702576,33.6056206 74.3822014,36.0936768 74.3822014,39.1637002 L74.3822014,44.7217799 L68.8241218,44.7217799 C65.7540984,44.7217799 63.2660422,47.2098361 63.2660422,50.2798595 L63.2660422,50.2798595 C63.2660422,53.3498829 65.7540984,55.8379391 68.8241218,55.8379391 L74.3822014,55.8379391 L74.3822014,61.3960187 C74.3822014,64.4660422 76.8702576,66.9540984 79.940281,66.9540984 L79.940281,66.9540984 C83.0103044,66.9540984 85.4983607,64.4660422 85.4983607,61.3960187 L85.4983607,55.8379391 L91.0564403,55.8379391 C94.1264637,55.8379391 96.6145199,53.3498829 96.6145199,50.2798595 L96.6145199,50.2798595 C96.6145199,47.2098361 94.1264637,44.7217799 91.0564403,44.7217799 Z" id="Shape" fill="#FFFFFF"></path>
                <path d="M22.0578454,97.428103 L16.1149883,94.3929742 C7.75901639,90.1238876 2.49812646,81.530445 2.49812646,72.1477752 L2.49812646,27.7850117 C2.49812646,18.3997658 7.75644028,9.80913349 16.1149883,5.53981265 L22.0578454,2.50210773 L34.9728337,2.50210773 C37.7332553,2.50210773 39.9688525,4.73793911 39.9688525,7.49812646 L39.9688525,22.4864169 C39.9688525,25.2468384 37.7330211,27.4824356 34.9728337,27.4824356 L32.4747073,27.4824356 C26.9564403,27.4824356 22.4824356,31.9564403 22.4824356,37.4747073 L22.4824356,62.4552693 C22.4824356,67.9735363 26.9564403,72.447541 32.4747073,72.447541 L34.9728337,72.447541 C37.7332553,72.447541 39.9688525,74.6833724 39.9688525,77.4435597 L39.9688525,92.4318501 C39.9688525,95.1922717 37.7330211,97.4278689 34.9728337,97.4278689 L22.0578454,97.4278689 L22.0578454,97.428103 Z" id="Shape" fill="#0093FF"></path>
                <path d="M34.9725995,99.9262295 L22.0578454,99.9262295 C21.6632319,99.9262295 21.2735363,99.8313817 20.9213115,99.6538642 L14.9784543,96.6187354 C5.74051522,91.9 0,82.5222482 0,72.1480094 L0,27.7850117 C0,17.4107728 5.74051522,8.03302108 14.9782201,3.31428571 L20.9210773,0.279156909 C21.2733021,0.0992974239 21.6629977,0.00444964871 22.0576112,0.00444964871 L34.9725995,0.00444964871 C39.1044496,0.00444964871 42.4667447,3.36674473 42.4667447,7.49859485 L42.4667447,22.4868852 C42.4667447,26.6187354 39.1044496,29.9810304 34.9725995,29.9810304 L32.4744731,29.9810304 C28.342623,29.9810304 24.9803279,33.3433255 24.9803279,37.4751756 L24.9803279,62.4557377 C24.9803279,66.5875878 28.342623,69.9498829 32.4744731,69.9498829 L34.9725995,69.9498829 C39.1044496,69.9498829 42.4667447,73.312178 42.4667447,77.4440281 L42.4667447,92.4323185 C42.4667447,96.5639344 39.1044496,99.9262295 34.9725995,99.9262295 Z M22.657377,94.9302108 L34.9728337,94.9302108 C36.3517564,94.9302108 37.4709602,93.8086651 37.4709602,92.4320843 L37.4709602,77.4437939 C37.4709602,76.0674473 36.3517564,74.9456674 34.9728337,74.9456674 L32.4747073,74.9456674 C25.5875878,74.9456674 19.9845433,69.342623 19.9845433,62.4555035 L19.9845433,37.4749415 C19.9845433,30.587822 25.5875878,24.9847775 32.4747073,24.9847775 L34.9728337,24.9847775 C36.3517564,24.9847775 37.4709602,23.8632319 37.4709602,22.4866511 L37.4709602,7.49836066 C37.4709602,6.12201405 36.3517564,5.00023419 34.9728337,5.00023419 L22.657377,5.00023419 L17.2515222,7.76323185 C9.69250585,11.6252927 4.99601874,19.2967213 4.99601874,27.7850117 L4.99601874,72.1477752 C4.99601874,80.6360656 9.69227166,88.3077283 17.2515222,92.169555 L22.657377,94.9302108 Z" id="Shape" fill="#000000"></path>
                <circle id="Oval" fill="#000000" cx="29.9765808" cy="84.9379391" r="2.49812646"></circle>
                <circle id="Oval" fill="#000000" cx="19.9843091" cy="82.4398126" r="2.49812646"></circle>
                <circle id="Oval" fill="#000000" cx="29.9765808" cy="14.9925059" r="2.49812646"></circle>
                <circle id="Oval" fill="#000000" cx="19.9843091" cy="17.4906323" r="2.49812646"></circle>
            </g>
        </g>
    </g>
</svg>

<svg width="111" height="100" viewBox="0 0 111 100" xmlns="http://www.w3.org/2000/svg"><g fill-rule="nonzero" fill="none"><path d="M107.538 47.022c-1.798-15.243-15.612-26.14-30.856-24.34-15.243 1.798-26.14 15.615-24.34 30.855.422 3.575 1.526 6.898 3.132 9.888l-5.513 14.02h24.2c2.897.616 5.935.8 9.04.433 15.24-1.798 26.137-15.612 24.338-30.856z" fill="#13BA8E"/><path d="M80.01 80.564c-2.033 0-4.08-.207-6.11-.622H49.96c-.826 0-1.6-.41-2.063-1.092-.467-.682-.564-1.55-.26-2.32l5.102-12.968c-1.51-3.082-2.477-6.35-2.877-9.73-.95-8.033 1.29-15.957 6.298-22.31 5.012-6.35 12.197-10.372 20.233-11.32 8.03-.948 15.955 1.288 22.31 6.3 6.352 5.01 10.37 12.195 11.32 20.228.948 8.034-1.29 15.958-6.3 22.31-5.01 6.35-12.195 10.372-20.23 11.322-1.157.134-2.32.202-3.483.202zm-26.382-5.618h20.53c.176 0 .35.017.52.055 2.75.585 5.517.718 8.227.398 6.712-.792 12.71-4.15 16.895-9.453 4.184-5.306 6.052-11.92 5.258-18.63-.79-6.71-4.147-12.708-9.453-16.892-5.303-4.184-11.926-6.05-18.628-5.26-6.712.79-12.71 4.148-16.894 9.452-4.184 5.306-6.053 11.92-5.258 18.63.37 3.14 1.33 6.165 2.852 8.996.348.648.393 1.415.125 2.1l-4.174 10.606z" fill="#000"/><path d="M91.056 44.722h-5.558v-5.558c0-3.07-2.488-5.558-5.558-5.558s-5.558 2.488-5.558 5.558v5.558h-5.558c-3.07 0-5.558 2.488-5.558 5.558s2.488 5.558 5.558 5.558h5.558v5.558c0 3.07 2.488 5.558 5.558 5.558s5.558-2.488 5.558-5.558v-5.558h5.558c3.07 0 5.56-2.488 5.56-5.558s-2.49-5.558-5.56-5.558z" fill="#FFF"/><path d="M22.058 97.428l-5.943-3.035C7.76 90.123 2.498 81.53 2.498 72.148V27.785C2.498 18.4 7.756 9.81 16.115 5.54l5.943-3.038h12.915c2.76 0 4.996 2.236 4.996 4.996v14.988c0 2.76-2.237 4.996-4.997 4.996h-2.498c-5.52 0-9.993 4.474-9.993 9.993v24.98c0 5.52 4.474 9.993 9.993 9.993h2.498c2.76 0 4.996 2.235 4.996 4.996v14.988c0 2.76-2.237 4.996-4.997 4.996H22.058z" fill="#0093FF"/><path d="M34.973 99.926H22.058c-.395 0-.784-.095-1.137-.272L14.98 96.62C5.74 91.9 0 82.52 0 72.147V27.785C0 17.41 5.74 8.033 14.978 3.315L20.92.278c.353-.18.743-.276 1.138-.276h12.915c4.13 0 7.494 3.363 7.494 7.495v14.987c0 4.132-3.363 7.494-7.494 7.494h-2.5c-4.13 0-7.493 3.363-7.493 7.495v24.98c0 4.133 3.363 7.495 7.494 7.495h2.5c4.13 0 7.493 3.362 7.493 7.494v14.988c0 4.132-3.363 7.494-7.494 7.494zM22.657 94.93h12.316c1.38 0 2.498-1.12 2.498-2.498V77.444c0-1.377-1.118-2.498-2.497-2.498h-2.498c-6.887 0-12.49-5.603-12.49-12.49v-24.98c0-6.888 5.603-12.49 12.49-12.49h2.498c1.38 0 2.498-1.123 2.498-2.5V7.5C37.47 6.122 36.353 5 34.974 5H22.657l-5.405 2.763C9.692 11.625 4.996 19.297 4.996 27.785v44.363c0 8.488 4.696 16.16 12.256 20.022l5.405 2.76z" fill="#000"/><circle fill="#000" cx="29.977" cy="84.938" r="2.498"/><circle fill="#000" cx="19.984" cy="82.44" r="2.498"/><circle fill="#000" cx="29.977" cy="14.993" r="2.498"/><circle fill="#000" cx="19.984" cy="17.491" r="2.498"/></g></svg>
